svg/thermometer_probe.svg

<svg xmlns="http://www.w3.org/2000/svg" viewBox="0 0 24 24"><path d="m19.47 3.47-6 6-2.94.53c-.31.03-.59.18-.81.4l-6.91 6.91a2.76 2.76 0 0 0 0 3.89 2.76 2.76 0 0 0 3.89 0l6.91-6.91c.22-.22.39-.5.42-.79l.51-2.96 6-6L22 2zM11 14.38c-.76 0-1.38-.62-1.38-1.38s.62-1.38 1.38-1.38 1.38.62 1.38 1.38A1.39 1.39 0 0 1 11 14.38"/></svg>

<svg xmlns="http://www.w3.org/2000/svg" id="mdi-thermometer-probe" viewBox="0 0 24 24"><path d="M19.47 3.47L13.47 9.47L10.53 10C10.22 10.03 9.94 10.18 9.72 10.4L2.81 17.31C1.74 18.38 1.74 20.12 2.81 21.2C3.88 22.27 5.62 22.27 6.7 21.2L13.61 14.29C13.83 14.07 14 13.79 14.03 13.5L14.54 10.54L20.54 4.54L22 2L19.47 3.47M11 14.38C10.24 14.38 9.62 13.76 9.62 13S10.24 11.62 11 11.62 12.38 12.24 12.38 13C12.37 13.76 11.76 14.38 11 14.38Z" /></svg>
